X:279
T:B279-  Let Mary Live Long
Q:1/4=120
L:1/8
M:3/4
K:Dm
F2|A3 Bc2|f4f2|(f/g/a) (gf) (ed)|\
(e/f/g) (fe) (dc)|B3 A (GA)|(BA) (GF)F2|A3 Bc2|\
(f3/2g/ f3/2g/)a2|(gf/e/)d3 c|c4||ee|(e/f/g)g2g2|\
(g3/2a/ gf)e2|(fed)c d2|f4e3/2d/|c2G2A2|\
B4c2|A2F2G2|(A/B/c) (B/A3/2)c2|d2B2d2|\
(e/f/g)c2zf|(f/g/a) (gf)e2|f4|]
